X: 1
T: la Guenille
O: Qubec
N: from a handwritten MS
R: reel
M: 2/4
L: 1/16
K: D
|: "D"Adde fdfd | "Em"Beef "A7"gece | "D"Adde fdfd |1 "A7"cdeg fdec \
                                                  :|2 "A7"cdec "D"d2AA ||
|: "D"a3g f2dd | "A7"cdef gece |1 "A7"a2ag "D"f2dd | "A7"cdec "D"d2AA \
                              :|2 "A7"abag "D"f2dd |2 "A7"cdec "D"d4 |]
